Gruvbox-Plus-Dark/actions/16/kstars_fitsviewer.svg

<svg xmlns="http://www.w3.org/2000/svg" width="16" height="16" viewBox="0 0 16 16">
 <defs>
  <style id="current-color-scheme" type="text/css">
   .ColorScheme-Text { color:#ebdbb2; } .ColorScheme-Highlight { color:#458588; }
  </style>
 </defs>
 <path style="fill:currentColor" class="ColorScheme-Text" d="M 6 2 C 2.134 2 0 4.679875 0 7.984375 C 0 11.288975 2.134 13.75 6 13.75 C 2.7783 13.75 1.1660156 10.738275 1.1660156 7.984375 C 1.1659901 5.230475 2.7783 2.9960938 6 2.9960938 C 7.4561 2.9960938 8.7708687 3.4705094 9.7929688 4.2246094 C 9.2211887 4.0506094 8.6134 3.9606844 8 3.9589844 C 5.2386 3.9589844 3 5.712 3 7.875 L 3 7.8847656 C 3.00102 7.9907656 3.0075402 8.097525 3.0195312 8.203125 C 3.2124813 11.433425 6.2585 14.001953 10 14.001953 C 13.866 14.001953 16 11.260106 16 7.8789062 C 16 4.4976062 13.866 2.0019531 10 2.0019531 C 13.2217 2.0019531 14.833984 5.0592531 14.833984 7.8769531 C 14.83401 10.694653 13.2217 12.978516 10 12.978516 C 8.3275 12.978516 6.8233656 12.359347 5.7597656 11.373047 C 6.4547856 11.647147 7.2219 11.790016 8 11.791016 C 10.705 11.791016 12.916888 10.102375 12.992188 7.984375 L 13 7.984375 C 13 7.965375 12.996294 7.9447813 12.996094 7.9257812 C 12.997494 7.9087812 12.9988 7.892 13 7.875 C 12.9983 7.7414 12.98786 7.6073094 12.96875 7.4746094 C 12.66616 4.4086094 9.6652 2 6 2 z"/>
</svg>

<svg width="16" height="16" version="1.1" viewBox="0 0 16 16" xmlns="http://www.w3.org/2000/svg">
  <defs>
    <style type="text/css">.ColorScheme-Text { color:#ebdbb2; } .ColorScheme-Highlight { color:#458588; }</style>
  </defs>
  <path class="ColorScheme-Text" d="m6 2c-3.866 0-6 2.68-6 5.984 0 3.305 2.134 5.766 6 5.766-3.222 0-4.834-3.012-4.834-5.766-2.55e-5 -2.754 1.612-4.988 4.834-4.988 1.456 0 2.771 0.4744 3.793 1.229-0.5718-0.174-1.18-0.2639-1.793-0.2656-2.761 0-5 1.753-4.894 4.614 0.1062 2.861 3.152 5.429 6.894 5.429 3.866 0 6-2.742 6-6.123 0-3.381-2.134-5.877-6-5.877 3.222 0 4.834 3.057 4.834 5.875 2.6e-5 2.818-1.612 5.102-4.834 5.102-1.672 0-3.177-0.6192-4.24-1.605 0.695 0.2741 1.462 0.417 2.24 0.418 2.705 0 4.917-1.689 4.792-4.536s-3.126-5.255-6.792-5.255z" fill="currentColor"/>
</svg>
